X: 34
T: Missa Cum iocunditate / Sanctus
N: Derived from Rue1007d-Missa_Cum_iocunditate-Sanctus.krn
C: Pierre de la Rue
%%abc-version 2.0
%%abcx-abcm2ps-target-version 5.9.1 (29 Sep 2008)
%%abc-creator hum2abc beta
%%abcx-conversion-date 2019/02/17 08:01:10
%%abc-edited-by Jesse Rodin
%%abc-edited-by Jesse Rodin; Victoria Chang 2011/04/03
%%abcx-initial-encoding-date 2011/04/03/
%%humdrum-veritas 1146511913
%%humdrum-veritas-data 1052236267
%%linebreak <none>
%%barnumbers 0
L: 1/4
M: 3/1
Q: 1/2=120
%%staves [1 2 3 4]
V: 1 clef=treble
V: 2 clef=treble-8
V: 3 clef=treble-8
V: 4 clef=bass
K: C
[V:1] G8E4 | 
[V:2] G6E2G2A2- | 
[V:3] z12 | 
[V:4] z12 | 
[V:1] G4A6G2 | 
[V:2] AGG4^FE^F3G | 
[V:3] d12 | 
[V:4] G,4D,8 | 
[V:1] G4z2G2A2B2 | 
[V:2] G4z4z4 | 
[V:3] B8d4 | 
[V:4] z2G,4F,E,D,2G,2 | 
[V:1] c3BG8 | 
[V:2] G4c4B2B2- | 
[V:3] e8d4 | 
[V:4] C,8z2G,2- | 
[V:1] z2G2A2B2c3B | 
[V:2] B2AGF2G4A2 | 
[V:3] d8z4 | 
[V:4] G,2F,E,D,2G,2C,2F,2 | 
[V:1] G2c3BAGF4 | 
[V:2] B2c2F3GA2A2- | 
[V:3] z12 | 
[V:4] E,2A,3G,F,E,D,4 | 
[V:1] E2A2G2c3BAG | 
[V:2] AGE2z2A2G2c2- | 
[V:3] c12 | 
[V:4] C,4z2F,2E,2A,2- | 
[V:1] FEA4GFE4 | 
[V:2] cBAGF3EG4- | 
[V:3] A8c4 | 
[V:4] A,G,F,E,D,4C,4 | 
[V:1] z2G2A2B2c3B | 
[V:2] G4z2G4A2 | 
[V:3] d8c4 | 
[V:4] z2G,2F,2G,2C,2F,2 | 
[V:1] G2c3BAGA3G/F/ | 
[V:2] B2c2F4z2A2- | 
[V:3] c8z4 | 
[V:4] E,2A,3G,F,E,D,4 | 
[V:1] E2A4G4^F2 | 
[V:2] ABc3BAGA4 | 
[V:3] z12 | 
[V:4] C,8z4 | 
[V:1] G12 | 
[V:2] G4z2d4d2 | 
[V:3] B12 | 
[V:4] G,6G,2G,3F, | 
[V:1] z4z4D3E | 
[V:2] cBc4BAG4 | 
[V:3] G8B4 | 
[V:4] E,D,E,4D,C,B,,4 | 
[V:1] FGA3BcB/c/d4 | 
[V:2] A3Bcde2d2G2 | 
[V:3] c8B4 | 
[V:4] A,,8z4 | 
[V:1] d2G2d3cBAB2- | 
[V:2] d4z2d3cBA | 
[V:3] B8z4 | 
[V:4] G,6G,2G,3F, | 
[V:1] B2G4FED3E | 
[V:2] G8G4 | 
[V:3] z12 | 
[V:4] E,D,E,4D,C,B,,4 | 
[V:1] FGA4GFE4 | 
[V:2] ABcde2d4^c2 | 
[V:3] A12 | 
[V:4] A,,12 | 
[V:1] D8z4 | 
[V:2] d2_B4AG^F3E | 
[V:3] F8A4 | 
[V:4] z2D,4C,_B,,A,,4 | 
[V:1] z4z2DEFGA2- | 
[V:2] GA_Bcdef4ed | 
[V:3] _B8A4 | 
[V:4] z2G,,A,,_B,,C,D,4C,B,, | 
[V:1] A2GFE4D2B,C | 
[V:2] c2d4^c2d4- | 
[V:3] A8z4 | 
[V:4] A,,8z2G,,A,, | 
[V:1] DEF4EDC4 | 
[V:2] d4z4z2cd | 
[V:3] z12 | 
[V:4] B,,C,D,4C,B,,A,,4 | 
[V:1] B,2E2D2C4B,2 | 
[V:2] efg4fed4 | 
[V:3] G12 | 
[V:4] G,,12 | 
[V:1] C4z2GABcd2- | 
[V:2] z2cdefg4fe | 
[V:3] E8G4 | 
[V:4] C,8G,,4 | 
[V:1] d2cBA4B4- | 
[V:2] d2g4^f2g4- | 
[V:3] A8G4 | 
[V:4] D,8G,,4 | 
[V:1] B2G2G4G4 ||  
[V:2] g2d2d4d4 ||  
[V:3] G12 ||  
[V:4] G,,12 ||  
[V:1] [M:2/1]z8 | 
[V:2] [M:2/1]G4G2B2- | 
[V:3] [M:2/1]z8 | 
[V:4] [M:2/1]z8 | 
[V:1] z8 | 
[V:2] Bcd2B2e2- | 
[V:3] z8 | 
[V:4] z4z2C,2- | 
[V:1] z8 | 
[V:2] e2dcB4 | 
[V:3] z8 | 
[V:4] C,2E,3F,G,2 | 
[V:1] z4E4 | 
[V:2] z8 | 
[V:3] z8 | 
[V:4] E,2A,4G,F, | 
[V:1] E2G3AB2 | 
[V:2] z4z2e2- | 
[V:3] z8 | 
[V:4] E,8- | 
[V:1] G2c4G2 | 
[V:2] edB2c2B2- | 
[V:3] z8 | 
[V:4] E,8- | 
[V:1] G4z4 | 
[V:2] B2e2e2g2- | 
[V:3] z8 | 
[V:4] E,8 | 
[V:1] z2B2B2d2- | 
[V:2] gfe2d4 | 
[V:3] z8 | 
[V:4] z2G,2G,2B,2- | 
[V:1] dcB2A4 | 
[V:2] z2d2d2f2- | 
[V:3] z8 | 
[V:4] B,A,G,2F,4 | 
[V:1] z2A2A2c2- | 
[V:2] fed2c4 | 
[V:3] z8 | 
[V:4] D,2F,2F,2A,2- | 
[V:1] cBA2G2F2 | 
[V:2] z4z2c2 | 
[V:3] z8 | 
[V:4] A,G,F,2E,2A,2 | 
[V:1] E4z2E2 | 
[V:2] c2e3dc2 | 
[V:3] z8 | 
[V:4] A,2C3B,A,2 | 
[V:1] E2G3FE2 | 
[V:2] B8- | 
[V:3] z8 | 
[V:4] G,8 | 
[V:1] D2G3ABc | 
[V:2] B8 | 
[V:3] z8 | 
[V:4] z2E,2E,2G,2- | 
[V:1] d2G2B2A2- | 
[V:2] z2B2B2d2- | 
[V:3] z8 | 
[V:4] G,F,E,2D,4 | 
[V:1] A2G4^F2 | 
[V:2] dcB2A4 | 
[V:3] z8 | 
[V:4] D,8 | 
[V:1] G4z2G2 | 
[V:2] z2G2D2G2- | 
[V:3] z8 | 
[V:4] G,,8 | 
[V:1] D2G3FGA | 
[V:2] GFGAB2G2- | 
[V:3] z8 | 
[V:4] z4z2G,2 | 
[V:1] B2G2z2G2- | 
[V:2] G2B3ABc | 
[V:3] z8 | 
[V:4] E,2G,3F,G,A, | 
[V:1] GFGAB2G2 | 
[V:2] d2B4B2 | 
[V:3] z8 | 
[V:4] B,2G,2z2G,2 | 
[V:1] BABcd4- | 
[V:2] G2B3ABc | 
[V:3] z8 | 
[V:4] E,2G,3F,G,A, | 
[V:1] d4B4 | 
[V:2] d2G2dcde | 
[V:3] z8 | 
[V:4] B,4G,4 | 
[V:1] A8- | 
[V:2] f2edc4 | 
[V:3] z8 | 
[V:4] F,8- | 
[V:1] A8 | 
[V:2] z2d3cde | 
[V:3] z8 | 
[V:4] F,4z2D,2- | 
[V:1] z2A3GAB | 
[V:2] f2edc4- | 
[V:3] z8 | 
[V:4] D,C,D,E,F,2E,D, | 
[V:1] c2BAG4 | 
[V:2] c4c4 | 
[V:3] z8 | 
[V:4] C,8 | 
[V:1] z2A3GAB | 
[V:2] c8 | 
[V:3] z8 | 
[V:4] z2F,3E,F,G, | 
[V:1] c2c4BA | 
[V:2] z2c3Bcd | 
[V:3] z8 | 
[V:4] A,6G,F, | 
[V:1] G2A4^G2 | 
[V:2] e2dcB4 | 
[V:3] z8 | 
[V:4] E,4E,4 | 
[V:1] A2FEFGA2- | 
[V:2] A2dcdef2- | 
[V:3] z8 | 
[V:4] z4z2F,2- | 
[V:1] A2GFE4 | 
[V:2] fed4^c2 | 
[V:3] z8 | 
[V:4] F,E,F,G,A,4 | 
[V:1] D2A3GAB | 
[V:2] d2f3efg | 
[V:3] z8 | 
[V:4] D,8 | 
[V:1] c2d4^c2 | 
[V:2] a2f2e4 | 
[V:3] z8 | 
[V:4] z8 | 
[V:1] d4z4 | 
[V:2] d4z2A2- | 
[V:3] z8 | 
[V:4] z2D,3E,F,G, | 
[V:1] z2C3DEF | 
[V:2] ABcde2E2- | 
[V:3] z8 | 
[V:4] A,2A,,3B,,C,D, | 
[V:1] G8 | 
[V:2] EFGAB2c2 | 
[V:3] z8 | 
[V:4] E,8 | 
[V:1] z2F3GAB | 
[V:2] d4z2A2- | 
[V:3] z8 | 
[V:4] z2D,3E,F,G, | 
[V:1] c6BA | 
[V:2] ABcde2E2- | 
[V:3] z8 | 
[V:4] A,2A,,3B,,C,D, | 
[V:1] G4z2G2- | 
[V:2] EFGAB4 | 
[V:3] z8 | 
[V:4] E,8 | 
[V:1] GABcd2D2- | 
[V:2] z2G3ABc | 
[V:3] z8 | 
[V:4] z8 | 
[V:1] DEFGA2B2- | 
[V:2] d4c2d2- | 
[V:3] z8 | 
[V:4] z4z2G,,2- | 
[V:1] B2G4^F2 | 
[V:2] d2cBA4 | 
[V:3] z8 | 
[V:4] G,,A,,B,,C,D,4 | 
[V:1] G4z2G2- | 
[V:2] G8 | 
[V:3] z8 | 
[V:4] G,,8- | 
[V:1] GABcd2D2- | 
[V:2] z4G3A | 
[V:3] z8 | 
[V:4] G,,8 | 
[V:1] DEFGA2B2- | 
[V:2] Bcd2c2d2- | 
[V:3] z8 | 
[V:4] z4z2G,,2- | 
[V:1] B2G4^F2 | 
[V:2] d2cBA4 | 
[V:3] z8 | 
[V:4] G,,A,,B,,C,D,4 | 
[V:1] G8 ||  
[V:2] G8 ||  
[V:3] z8 ||  
[V:4] G,,8 ||  
[V:1] [M:3/1]G6A2B4 | 
[V:2] [M:3/1]d4B4d4 | 
[V:3] [M:3/1]G12 | 
[V:4] [M:3/1]z12 | 
[V:1] c8B4 | 
[V:2] e8e4 | 
[V:3] G4E4G4 | 
[V:4] C,6D,2E,4 | 
[V:1] A6B2c4 | 
[V:2] c6d2e4 | 
[V:3] A8G4 | 
[V:4] F,8E,4 | 
[V:1] d6c2B2A2 | 
[V:2] f6e2d2c2 | 
[V:3] z12 | 
[V:4] D,6E,2F,4 | 
[V:1] G8z4 | 
[V:2] B6c2d4 | 
[V:3] G8G4 | 
[V:4] G,6F,2E,2D,2 | 
[V:1] c8B4 | 
[V:2] e8d4 | 
[V:3] E8G4 | 
[V:4] C,8z4 | 
[V:1] A6F2G4 | 
[V:2] c6A2B2c2 | 
[V:3] A8G4 | 
[V:4] F,8E,4 | 
[V:1] F6D2E4 | 
[V:2] d8z4 | 
[V:3] z12 | 
[V:4] D,6B,,2C,4 | 
[V:1] D8z4 | 
[V:2] z12 | 
[V:3] G8E4 | 
[V:4] B,,6G,,2A,,4 | 
[V:1] D6E2F4 | 
[V:2] B8c4 | 
[V:3] G8A4 | 
[V:4] G,,8z4 | 
[V:1] G6F2D4 | 
[V:2] d6c2B2A2 | 
[V:3] G8z4 | 
[V:4] G,,6A,,2B,,4 | 
[V:1] E6F2G4 | 
[V:2] G4c4B4 | 
[V:3] G8G4 | 
[V:4] C,6B,,2G,,4 | 
[V:1] C6D2E2C2 | 
[V:2] e6d2c4 | 
[V:3] E12- | 
[V:4] A,,8z4 | 
[V:1] G8z4 | 
[V:2] B8d4- | 
[V:3] E4G8 | 
[V:4] G,,6A,,2B,,2G,,2 | 
[V:1] F6G2A2F2 | 
[V:2] d12 | 
[V:3] A12- | 
[V:4] D,8z4 | 
[V:1] c8c4 | 
[V:2] e8e4 | 
[V:3] A4G8 | 
[V:4] C,6D,2E,2C,2 | 
[V:1] B4A6G2 | 
[V:2] d6c2B4 | 
[V:3] z12 | 
[V:4] G,4F,4G,4- | 
[V:1] G8^F4 | 
[V:2] G4A8 | 
[V:3] d8d4 | 
[V:4] G,4D,8 | 
[V:1] G8z4 | 
[V:2] G8z4 | 
[V:3] B8d4 | 
[V:4] G,,8z4 | 
[V:1] G8A4 | 
[V:2] G8c4 | 
[V:3] e12- | 
[V:4] C,8A,,4 | 
[V:1] G4A4B4 | 
[V:2] B4A4G4 | 
[V:3] e4d8 | 
[V:4] E,4F,4G,4 | 
[V:1] c4G4A4 | 
[V:2] e8d4 | 
[V:3] z12 | 
[V:4] C,4E,4F,4 | 
[V:1] G4A4B4 | 
[V:2] e4d8 | 
[V:3] z12 | 
[V:4] E,4F,4G,4 | 
[V:1] c6B2G4 | 
[V:2] c8z4 | 
[V:3] G8E4 | 
[V:4] C,8C,4 | 
[V:1] d6c2A4 | 
[V:2] g8f4 | 
[V:3] G4A8 | 
[V:4] G,,4D,8 | 
[V:1] B4B2A4G2 | 
[V:2] g4c4B4 | 
[V:3] G4E4G4- | 
[V:4] G,,4A,,4B,,4 | 
[V:1] G8^F4 | 
[V:2] d6c2A4 | 
[V:3] G4A8 | 
[V:4] G,,4D,8 | 
[V:1] G12- | 
[V:2] B12- | 
[V:3] G12- | 
[V:4] G,,12- | 
[V:1] G12 ||  
[V:2] B4d8 ||  
[V:3] G12 ||  
[V:4] G,,12 ||  
[V:1] [M:2/1]z8 | 
[V:2] [M:2/1]G4G2c2- | 
[V:3] [M:2/1]z8 | 
[V:4] [M:2/1]z8 | 
[V:1] z8 | 
[V:2] c2B4AG | 
[V:3] z8 | 
[V:4] z8 | 
[V:1] E4E2A2- | 
[V:2] A2G4c2 | 
[V:3] z8 | 
[V:4] z8 | 
[V:1] A2G4FE | 
[V:2] d2e4dc | 
[V:3] z8 | 
[V:4] z8 | 
[V:1] F2E3FGA | 
[V:2] d2c2e4- | 
[V:3] z8 | 
[V:4] z8 | 
[V:1] B2c4BA | 
[V:2] e4A4 | 
[V:3] z8 | 
[V:4] z8 | 
[V:1] B2A2d3c | 
[V:2] z2f3dd2 | 
[V:3] z8 | 
[V:4] D,4D,2G,2- | 
[V:1] B2A4GF | 
[V:2] e2A3Bcd | 
[V:3] z8 | 
[V:4] G,2F,4E,D, | 
[V:1] G2A2E4 | 
[V:2] B2d2c4 | 
[V:3] z8 | 
[V:4] E,2D,2A,4 | 
[V:1] z2c4c2 | 
[V:2] z2c3def | 
[V:3] z8 | 
[V:4] z2A,4G,F, | 
[V:1] B2A2G4- | 
[V:2] d2f2e4- | 
[V:3] z8 | 
[V:4] G,2F,2C4 | 
[V:1] G4z2G2- | 
[V:2] e4z2G2- | 
[V:3] z8 | 
[V:4] C,4z2E,2- | 
[V:1] G2FEF2G2 | 
[V:2] GABcA2c2 | 
[V:3] z8 | 
[V:4] E,2D,C,D,2C,2 | 
[V:1] D8 | 
[V:2] B8 | 
[V:3] z8 | 
[V:4] G,4G,,4 | 
[V:1] z2B4AG | 
[V:2] z2d4d2 | 
[V:3] z8 | 
[V:4] z2G,4F,E, | 
[V:1] A2G4^F2 | 
[V:2] c2B2A4 | 
[V:3] z8 | 
[V:4] F,2G,2D,4 | 
[V:1] G8 | 
[V:2] G4z2_B2- | 
[V:3] z8 | 
[V:4] G,,4z2G,2- | 
[V:1] z8 | 
[V:2] BAGFG2A2 | 
[V:3] z8 | 
[V:4] G,F,E,D,E,2F,2 | 
[V:1] z2c3BAG | 
[V:2] F4c4 | 
[V:3] z8 | 
[V:4] D,2A,3G,F,E, | 
[V:1] A2B2G2d2- | 
[V:2] z4z2f2- | 
[V:3] z8 | 
[V:4] F,2G,3F,D,2 | 
[V:1] dcBAB2c2 | 
[V:2] fedcd2e2 | 
[V:3] z8 | 
[V:4] z8 | 
[V:1] A2G2z4 | 
[V:2] c2g3fed | 
[V:3] z8 | 
[V:4] z2_B,3A,G,F, | 
[V:1] z8 | 
[V:2] e2f2d2e2- | 
[V:3] z8 | 
[V:4] G,2A,2F,2G,2- | 
[V:1] z8 | 
[V:2] edcBc2d2- | 
[V:3] z8 | 
[V:4] G,F,E,D,E,2F,2 | 
[V:1] z2G3FED | 
[V:2] d2G2z4 | 
[V:3] z8 | 
[V:4] D,2E,3D,C,B,, | 
[V:1] E3FD2_B2- | 
[V:2] z4z2d2- | 
[V:3] z8 | 
[V:4] C,4D,4 | 
[V:1] BAGFG4 | 
[V:2] dcBAB4 | 
[V:3] z8 | 
[V:4] z8 | 
[V:1] A8 | 
[V:2] A8- | 
[V:3] z8 | 
[V:4] z2D,4D,2 | 
[V:1] z2A4A2 | 
[V:2] A8 | 
[V:3] z8 | 
[V:4] C,2A,,3B,,C,D, | 
[V:1] G2E3FGA | 
[V:2] z2c4c2 | 
[V:3] z8 | 
[V:4] E,4z4 | 
[V:1] B8 | 
[V:2] B2G3ABc | 
[V:3] z8 | 
[V:4] z2G,4G,2 | 
[V:1] z8 | 
[V:2] d2d4d2 | 
[V:3] z8 | 
[V:4] F,2D,3E,F,G, | 
[V:1] z2c4c2 | 
[V:2] c2A3Bcd | 
[V:3] z8 | 
[V:4] A,4A,,4 | 
[V:1] B2G3ABc | 
[V:2] e8 | 
[V:3] z8 | 
[V:4] z2C,4C,2 | 
[V:1] d8 | 
[V:2] z2G4G2 | 
[V:3] z8 | 
[V:4] B,,2G,,3A,,B,,C, | 
[V:1] z2D4D2 | 
[V:2] F2D3EFG | 
[V:3] z8 | 
[V:4] D,8 | 
[V:1] C2A,3B,CD | 
[V:2] A8 | 
[V:3] z8 | 
[V:4] z2D,4D,2 | 
[V:1] E2F2E3F | 
[V:2] z2c4c2 | 
[V:3] z8 | 
[V:4] C,2A,,3B,,C,D, | 
[V:1] GAB4AG | 
[V:2] B2G3ABc | 
[V:3] z8 | 
[V:4] E,8 | 
[V:1] F2G4^F2 | 
[V:2] d2G2A4 | 
[V:3] z8 | 
[V:4] D,2E,2D,4 | 
[V:1] G8 | 
[V:2] G4z4 | 
[V:3] z8 | 
[V:4] z2G,4G,2 | 
[V:1] z2c4c2 | 
[V:2] z8 | 
[V:3] z8 | 
[V:4] F,2C,3D,E,F, | 
[V:1] B2G3ABc | 
[V:2] z2c4c2 | 
[V:3] z8 | 
[V:4] G,2C,4B,,A,, | 
[V:1] d2B4AG | 
[V:2] B2G3ABc | 
[V:3] z8 | 
[V:4] G,,2G,4F,E, | 
[V:1] F2G4^F2 | 
[V:2] d2G2A4 | 
[V:3] z8 | 
[V:4] D,2E,2D,4 | 
[V:1] G8 ||  
[V:2] G8 ||  
[V:3] z8 ||  
[V:4] G,,8 ||  



